!!!OTL: TANZ TANZ BUTZEMANN
!!!ARE: Europa, Mitteleuropa, Deutschland, Erfurt
!!!SCT: E0005A
!!!YEM: Copyright 1995, estate of Helmut Schaffrath.
**kern
*ICvox
*Ivox
*M2/4
*k[f#]
*G:
=1
{4g
4b
=2
8.dd
16ee
8dd}
{8cc
=3
8b
8b
8a
8a
=4
4g
4r}
=5
{8g
8g
8g
8g
=6
8a
8d
8d
8d}
=7
{8g
8g
8g
8g
=8
8a
8d
8d
8d}
=9
{4g
4b
=10
8.dd
16dd
8dd}
{8cc
=11
8b
8b
8a
8a
=12
4g
4r}
==
!!!AGN: Sage, Maerchen -, Zauber - Lied, Ballade ?
!!!ONB: ESAC (Essen Associative Code) Database: ERK1
!!!AMT: simple duple
!!!AIN: vox
!!!EED: Helmut Schaffrath
!!!EEV: 1.0
*-
